symbols/web/doorbell/materialsymbolssharp/doorbell_gradN25fill1_48px.svg

<svg xmlns="http://www.w3.org/2000/svg" height="48" width="48"><path d="M24 34.4q.65 0 1.15-.425.5-.425.6-1.075H22.3q.1.65.575 1.075.475.425 1.125.425Zm-7.65-2.5h15.3v-1.45H29.7v-4.9q0-2.1-1.2-3.825T25.25 19.5v-1.95h-2.5v1.95q-2 .5-3.2 2.225-1.2 1.725-1.2 3.825v4.9h-2Zm-8.1 9.85V18.1L24 6.25 39.8 18.1v23.65Z"/></svg>

<svg xmlns="http://www.w3.org/2000/svg" height="48" width="48"><path d="M24 34.4Q24.65 34.4 25.15 33.975Q25.65 33.55 25.75 32.9H22.3Q22.4 33.55 22.875 33.975Q23.35 34.4 24 34.4ZM16.35 31.9H31.65V30.45H29.7V25.55Q29.7 23.45 28.5 21.725Q27.3 20 25.25 19.5V17.55H22.75V19.5Q20.75 20 19.55 21.725Q18.35 23.45 18.35 25.55V30.45H16.35ZM8.25 41.75V18.1L24 6.25L39.8 18.1V41.75Z"/></svg>
